images/diamond.svg

<svg width="94" height="99" viewBox="0 0 94 99" fill="none" xmlns="http://www.w3.org/2000/svg">
<path fill-rule="evenodd" clip-rule="evenodd" d="M4.714 53.965L23.538 30.5727L74.631 31.3509L93.455 53.1877L48.546 98.518L4.714 53.965ZM26.711 36.4044L12.818 53.722L42.539 84.4147L31.624 56.6904L21.701 55.5042L21.948 52.3602L31.513 51.6254L36.158 36.3658L26.711 36.4044ZM59.289 36.2722L42.126 36.3417L37.576 51.3457L63.017 51.3225L59.289 36.2722ZM62.557 57.1166L37.944 57.1089L48.993 87.9791L62.557 57.1166ZM27.372 21.221L28.096 4.94586L36.119 6.16485L31.079 21.8391L27.372 21.221ZM9.653 2.86856L17.922 0.578125L22.58 21.6048L18.801 23.3291L9.653 2.86856ZM13.183 27.991L0 21.4707L4.754 15.073L14.881 24.9898L13.183 27.991Z" fill="url(#paint0_linear_309_1258)"/>
<defs>
<linearGradient id="paint0_linear_309_1258" x1="34.0522" y1="108.183" x2="130.557" y2="62.3779" gradientUnits="userSpaceOnUse">
<stop stop-color="white"/>
<stop offset="1" stop-color="#AED3FF"/>
</linearGradient>
</defs>
</svg>

<svg xmlns="http://www.w3.org/2000/svg" width="94" height="99" fill="none"><path fill="url(#a)" fill-rule="evenodd" d="m4.714 53.965 18.824-23.392 51.093.778 18.824 21.837-44.909 45.33L4.714 53.965Zm21.997-17.56L12.818 53.721l29.721 30.693L31.624 56.69l-9.923-1.186.247-3.144 9.565-.735 4.645-15.26-9.447.04Zm32.578-.133-17.163.07-4.55 15.004 25.441-.023-3.728-15.05Zm3.268 20.845-24.613-.008 11.049 30.87 13.564-30.862ZM27.372 21.22l.724-16.275 8.023 1.219-5.04 15.674-3.707-.618ZM9.653 2.869l8.269-2.29 4.658 21.026-3.779 1.724L9.653 2.87Zm3.53 25.122L0 21.471l4.754-6.398 10.127 9.917-1.698 3.001Z" clip-rule="evenodd"/><defs><linearGradient id="a" x1="34.052" x2="130.557" y1="108.183" y2="62.378" gradientUnits="userSpaceOnUse"><stop stop-color="#fff"/><stop offset="1" stop-color="#AED3FF"/></linearGradient></defs></svg>
